apps/ledger-live-desktop/src/renderer/screens/exchange/assets/maestro.svg

<svg width="21" height="12" viewBox="0 0 21 12" fill="none" xmlns="http://www.w3.org/2000/svg">
<g clip-path="url(#clip0_1444_36166)">
<path d="M10.7428 10.4467C11.9561 9.34883 12.7145 7.76212 12.7145 5.99863C12.7145 4.23529 11.9561 2.64986 10.7428 1.5518C9.68115 0.586617 8.26259 -0.000732422 6.71916 -0.000732422C3.40025 -0.000732422 0.714844 2.68515 0.714844 5.99863C0.714844 9.31338 3.40025 11.9993 6.71916 11.9993C8.26243 11.9994 9.68099 11.4108 10.7428 10.4467Z" fill="#0066CB"/>
<path d="M10.7424 10.4469C11.9558 9.34903 12.7142 7.76232 12.7142 5.99883C12.7142 4.23549 11.9558 2.65005 10.7424 1.552" fill="#0066CB"/>
<path d="M10.7424 10.4469C11.9558 9.34903 12.7142 7.76232 12.7142 5.99883C12.7142 4.23549 11.9558 2.65005 10.7424 1.552" stroke="#0066CB" stroke-width="0.3097"/>
<path d="M14.775 -0.00012207C13.2226 -0.00012207 11.8041 0.587228 10.7425 1.55241C10.5283 1.7498 10.3231 1.96187 10.1358 2.18848H11.3491C11.5187 2.38953 11.6704 2.6016 11.8043 2.82341H9.68081C9.55593 3.02686 9.43999 3.23894 9.33284 3.45836H12.1521C12.2501 3.66436 12.3304 3.87628 12.4018 4.09442H9.08291C9.01153 4.30042 8.9491 4.51249 8.90454 4.72935H12.5804C12.6696 5.13881 12.7142 5.56407 12.7142 5.99924C12.7142 6.66564 12.607 7.30681 12.4018 7.90518H9.08308C9.15446 8.12316 9.23478 8.33523 9.33284 8.54108H12.1521C12.0449 8.76066 11.9379 8.97257 11.8041 9.17618H9.68065C9.81448 9.39799 9.97512 9.61006 10.1358 9.81128H11.3491C11.1618 10.0377 10.9566 10.2498 10.7425 10.4472C11.8041 11.4113 13.2226 11.9999 14.775 11.9999C18.085 11.9999 20.7704 9.31399 20.7704 5.99924C20.7704 2.68576 18.0848 -0.00012207 14.775 -0.00012207Z" fill="#CC0001"/>
<path d="M20.137 9.33196H20.1638C20.1729 9.33196 20.1815 9.33324 20.1815 9.3294C20.1906 9.32461 20.1994 9.31727 20.1994 9.31008C20.1994 9.30258 20.1905 9.29539 20.1815 9.29172C20.1815 9.28805 20.1638 9.28917 20.1638 9.28917H20.137V9.33196ZM20.137 9.42938H20.1014V9.25883H20.1727C20.1905 9.25883 20.1994 9.25882 20.2173 9.26744C20.2262 9.27718 20.235 9.29299 20.235 9.31024C20.235 9.32956 20.2261 9.34681 20.2082 9.35384L20.235 9.42953H20.1905L20.1727 9.36134H20.1368V9.42938H20.137ZM20.1638 9.49165C20.2441 9.49165 20.3155 9.42586 20.3155 9.3441C20.3155 9.26234 20.2441 9.19654 20.1638 9.19654C20.0836 9.19654 20.021 9.26234 20.021 9.3441C20.021 9.42586 20.0836 9.49165 20.1638 9.49165ZM19.9675 9.3441C19.9675 9.23679 20.0568 9.15039 20.1638 9.15039C20.2709 9.15039 20.3601 9.23679 20.3601 9.3441C20.3601 9.45142 20.2708 9.5378 20.1638 9.5378C20.0568 9.5378 19.9675 9.45142 19.9675 9.3441Z" fill="#231F20"/>
<path d="M5.78192 7.66863H5.02354L5.46956 5.32992L4.44353 7.66863H3.81897L3.69409 5.34333L3.19457 7.66863H2.50757L3.08742 4.62695H4.2741L4.29182 6.50973L5.11264 4.62695H6.37055L5.78192 7.66863Z" fill="#231F20"/>
<path d="M14.1238 7.63805C13.9185 7.69426 13.7579 7.71853 13.5885 7.71853C13.2049 7.71853 12.9995 7.52722 12.9995 7.1751C12.9995 7.10563 12.9995 7.03137 13.0172 6.95312L13.0618 6.7107L13.0976 6.51572L13.4455 4.62671H14.186L14.079 5.19457H14.4626L14.3556 5.79534H13.972L13.7758 6.8276C13.7668 6.87375 13.7668 6.90681 13.7668 6.92996C13.7668 7.05788 13.8382 7.11393 14.0166 7.11393C14.1059 7.11393 14.1681 7.10675 14.2218 7.09078L14.1238 7.63805Z" fill="#231F20"/>
<path d="M11.1617 5.97613C11.1617 6.28929 11.3313 6.50392 11.7327 6.66585C12.0361 6.79025 12.0894 6.82681 12.0894 6.93892C12.0894 7.09382 11.9556 7.16297 11.6525 7.16297C11.4294 7.16297 11.2152 7.13279 10.9744 7.06444L10.8762 7.63582L10.903 7.64078L11.0458 7.66633C11.0904 7.67368 11.153 7.68102 11.2421 7.6882C11.4204 7.70162 11.5632 7.70913 11.6613 7.70913C12.4554 7.70913 12.8213 7.44707 12.8213 6.88287C12.8213 6.54401 12.6696 6.34423 12.2948 6.19412C11.9736 6.0686 11.938 6.04177 11.938 5.92615C11.938 5.792 12.0629 5.72382 12.3039 5.72382C12.4554 5.72382 12.6606 5.73851 12.848 5.76167L12.9551 5.18884C12.7588 5.16201 12.4644 5.14014 12.2948 5.14014C11.4473 5.14014 11.1528 5.52036 11.1617 5.97613Z" fill="#231F20"/>
<path d="M7.69127 6.56697C7.61111 6.55835 7.57534 6.55611 7.52168 6.55611C7.10249 6.55611 6.88834 6.68275 6.88834 6.93251C6.88834 7.08598 6.99533 7.18482 7.15598 7.18482C7.45924 7.18498 7.68233 6.93267 7.69127 6.56697ZM8.19974 7.6687H7.57518L7.59306 7.41159C7.3968 7.61504 7.14704 7.71133 6.80785 7.71133C6.39744 7.71133 6.12085 7.43586 6.12085 7.03615C6.12085 6.43299 6.60265 6.08198 7.43225 6.08198C7.52152 6.08198 7.62852 6.08789 7.73567 6.10131C7.76234 6.0197 7.77128 5.98441 7.77128 5.94049C7.77128 5.77601 7.63746 5.71501 7.28949 5.71501C7.07534 5.71501 6.83452 5.74183 6.66492 5.78447L6.56671 5.81002L6.49533 5.82583L6.60232 5.27026C6.97696 5.17508 7.21778 5.13867 7.49437 5.13867C8.13666 5.13867 8.47585 5.38971 8.47585 5.86495C8.47585 5.9868 8.46691 6.07943 8.41341 6.3549L8.2617 7.23225L8.23503 7.38939L8.21714 7.51491L8.19926 7.60146V7.6687" fill="#231F20"/>
<path d="M10.2876 6.1428C10.2876 6.09169 10.2966 6.04905 10.2966 6.01728C10.2966 5.81622 10.1627 5.69789 9.93965 5.69789C9.69883 5.69789 9.52924 5.8563 9.4668 6.14135L10.2876 6.1428ZM10.6533 7.61501C10.3946 7.68336 10.1447 7.71609 9.88599 7.71482C9.04744 7.71482 8.61914 7.33458 8.61914 6.60718C8.61914 5.75777 9.17232 5.13257 9.92176 5.13257C10.5372 5.13257 10.9299 5.4823 10.9299 6.03181C10.9299 6.21482 10.9031 6.39128 10.8317 6.64232H9.3507C9.34176 6.68 9.34176 6.69725 9.34176 6.72024C9.34176 7.00657 9.56485 7.15285 10.0019 7.15285C10.2696 7.15285 10.5105 7.10542 10.7782 6.99683L10.6533 7.61501Z" fill="#231F20"/>
<path d="M17.862 6.25167C17.862 5.99329 17.7551 5.74831 17.4518 5.74831C17.0682 5.74831 16.8363 6.19929 16.8363 6.59645C16.8363 6.93164 16.9968 7.15713 17.2646 7.15202C17.4251 7.15202 17.7731 6.93148 17.8355 6.5463C17.8531 6.45751 17.862 6.35898 17.862 6.25167ZM18.6204 6.54758C18.5133 7.37016 17.9334 7.73474 17.1663 7.73474C16.3276 7.73474 15.9885 7.22292 15.9885 6.59533C15.9885 5.71781 16.5596 5.12439 17.4518 5.12439C18.2279 5.12439 18.6385 5.61306 18.6385 6.24081C18.6383 6.393 18.6383 6.40385 18.6204 6.54758Z" fill="#231F20"/>
<path d="M18.8701 7.28862H18.8968C18.8968 7.28862 18.9059 7.28863 18.9147 7.28496C18.9235 7.28128 18.9236 7.27282 18.9236 7.26547C18.9236 7.2594 18.9236 7.25205 18.9147 7.24854C18.9147 7.24487 18.8968 7.24487 18.888 7.24487H18.8701V7.28862ZM18.8701 7.38492H18.8343V7.21437H18.9057C18.9147 7.21437 18.9326 7.21565 18.9503 7.22427C18.9592 7.23274 18.968 7.24982 18.968 7.2669C18.968 7.28511 18.9591 7.30347 18.9413 7.31066L18.968 7.38508H18.9235L18.8966 7.31801H18.8701V7.38492ZM18.8968 7.44704C18.9773 7.44704 19.0397 7.38125 19.0397 7.29949C19.0397 7.219 18.9773 7.15321 18.8968 7.15321C18.8166 7.15321 18.7452 7.219 18.7452 7.29949C18.7452 7.38125 18.8166 7.44704 18.8968 7.44704ZM18.7007 7.29949C18.7007 7.19345 18.79 7.10706 18.8969 7.10706C19.0041 7.10706 19.0932 7.19345 19.0932 7.29949C19.0932 7.4068 19.0039 7.49319 18.8969 7.49319C18.7898 7.49319 18.7007 7.4068 18.7007 7.29949Z" fill="white"/>
<path d="M5.96936 7.49322H5.21992L5.66594 5.15467L4.63991 7.49322H3.96185L3.83697 5.16936L3.39095 7.49322H2.71289L3.29273 4.45154H4.46137L4.51487 6.33561L5.34464 4.45154H6.55799L5.96936 7.49322Z" fill="white"/>
<path d="M14.3112 7.46415C14.106 7.52021 13.9453 7.54449 13.7757 7.54449C13.3921 7.54449 13.1868 7.35205 13.1868 7.0012C13.1868 6.93158 13.1957 6.85748 13.2047 6.77939L13.2492 6.53666L13.2848 6.34039L13.633 4.45154H14.3735L14.2665 5.01941H14.65L14.5429 5.62145H14.1593L13.963 6.65355C13.9541 6.69874 13.9541 6.73276 13.9541 6.75608C13.9541 6.88415 14.0344 6.93892 14.2128 6.93892C14.2931 6.93892 14.3557 6.93158 14.4091 6.91561L14.3112 7.46415Z" fill="white"/>
<path d="M16.2293 5.7295L16.2116 5.65158L16.3633 5.264C16.3274 5.26033 16.3096 5.25921 16.3096 5.25682C16.2651 5.24819 16.2472 5.2434 16.2383 5.2434C16.2205 5.23844 16.1937 5.23733 16.167 5.23733C15.9173 5.23733 15.7477 5.34576 15.5157 5.63832L15.5961 5.19836H14.8199L14.3647 7.66851H15.1054C15.2035 7.10175 15.2482 6.77901 15.3106 6.51073C15.4087 6.06598 15.7389 5.86365 15.9797 5.90868C16.0064 5.91363 16.0243 5.91363 16.0599 5.92704L16.1044 5.94397L16.2293 5.7295Z" fill="#231F20"/>
<path d="M16.4879 5.04003C16.4254 5.01559 16.4165 5.01559 16.4077 5.01319C16.3718 5.00457 16.3451 4.99978 16.3451 4.9985C16.3184 4.99483 16.2916 4.99243 16.2648 4.99243C16.024 4.99243 15.8456 5.10215 15.6136 5.39471L15.6849 5.01926H15.0069L14.5518 7.49307H15.3012C15.5688 5.98077 15.6848 5.7152 16.0417 5.7152C16.0685 5.7152 16.0952 5.7176 16.131 5.72128L16.2202 5.73948L16.4879 5.04003Z" fill="white"/>
<path d="M11.3491 5.8019C11.3491 6.11378 11.5275 6.32954 11.9291 6.49162C12.2324 6.61475 12.2771 6.65132 12.2771 6.7647C12.2771 6.91817 12.1433 6.98764 11.8488 6.98764C11.6167 6.98764 11.4115 6.95713 11.1707 6.89006L11.0637 7.46049L11.0993 7.46639L11.2332 7.49066C11.2777 7.49945 11.3493 7.50664 11.4384 7.51287C11.6167 7.52628 11.7506 7.53346 11.8488 7.53346C12.6516 7.53346 13.0174 7.27268 13.0174 6.70848C13.0174 6.3685 12.8659 6.16985 12.4821 6.01989C12.1699 5.89437 12.134 5.86643 12.134 5.75049C12.134 5.61762 12.259 5.54943 12.4998 5.54943C12.6514 5.54943 12.8478 5.56284 13.0441 5.586L13.1511 5.01334C12.9548 4.98651 12.6605 4.96448 12.4821 4.96448C11.6436 4.96464 11.3491 5.34486 11.3491 5.8019Z" fill="white"/>
<path d="M7.8518 6.39163C7.77147 6.38316 7.7357 6.38188 7.6822 6.38188C7.26285 6.38188 7.0487 6.50851 7.0487 6.75827C7.0487 6.9119 7.14691 7.01059 7.31635 7.01059C7.61976 7.01075 7.83391 6.75716 7.8518 6.39163ZM8.39587 7.49318H7.77131L7.7892 7.23735C7.60188 7.44064 7.34318 7.53582 7.00399 7.53582C6.60252 7.53582 6.32593 7.26035 6.32593 6.86064C6.32593 6.25843 6.80772 5.90647 7.63733 5.90647C7.71765 5.90647 7.82465 5.91366 7.94059 5.92596C7.95847 5.84419 7.96725 5.81018 7.96725 5.76514C7.96725 5.60178 7.83343 5.54093 7.48546 5.54093C7.27131 5.54093 7.03033 5.56649 6.86984 5.60912L6.76285 5.63595L6.70041 5.65192L6.79862 5.09491C7.17326 4.99989 7.41408 4.9646 7.69067 4.9646C8.33295 4.9646 8.67214 5.21564 8.67214 5.68977C8.67214 5.81162 8.6632 5.90424 8.61865 6.17955L8.45799 7.05834L8.43132 7.21548L8.41344 7.34099L8.4045 7.42611L8.39587 7.49318Z" fill="white"/>
<path d="M10.448 5.96859C10.448 5.91621 10.448 5.87469 10.448 5.8418C10.448 5.64074 10.3232 5.52369 10.1001 5.52369C9.85926 5.52369 9.68966 5.68083 9.61828 5.96732L10.448 5.96859ZM10.8407 7.44064C10.5908 7.50771 10.3411 7.54061 10.0822 7.54061C9.24364 7.54061 8.8064 7.16038 8.8064 6.4317C8.8064 5.58357 9.35942 4.95837 10.1089 4.95837C10.7245 4.95837 11.117 5.3081 11.117 5.85648C11.117 6.03933 11.0902 6.21723 11.0276 6.46811H9.54673C9.53779 6.50596 9.5378 6.52304 9.5378 6.54604C9.5378 6.83253 9.76073 6.97881 10.189 6.97881C10.4567 6.97881 10.6976 6.92995 10.9651 6.82152L10.8407 7.44064Z" fill="white"/>
<path d="M18.0404 6.05549C18.0404 5.79711 17.9334 5.5523 17.6301 5.5523C17.2465 5.5523 17.0146 6.00311 17.0146 6.40043C17.0146 6.73674 17.1753 6.96239 17.4429 6.95728C17.6036 6.95728 17.9514 6.73674 18.0138 6.35156C18.0316 6.26134 18.0404 6.16281 18.0404 6.05549ZM18.8166 6.37248C18.7005 7.1949 18.1295 7.56044 17.3625 7.56044C16.5148 7.56044 16.1758 7.04735 16.1758 6.41975C16.1758 5.54352 16.7556 4.94897 17.648 4.94897C18.4239 4.94897 18.8345 5.43763 18.8345 6.06523C18.8345 6.21869 18.8345 6.2286 18.8166 6.37248Z" fill="white"/>
</g>
<defs>
<clipPath id="clip0_1444_36166">
<rect width="20.0559" height="12" fill="white" transform="translate(0.714355)"/>
</clipPath>
</defs>
</svg>

<svg xmlns="http://www.w3.org/2000/svg" width="21" height="12" fill="none" viewBox="0 0 21 12"><g clip-path="url(#a)"><path fill="#0066cb" d="M10.743 10.447a5.98 5.98 0 0 0 1.971-4.448 5.98 5.98 0 0 0-1.971-4.447 6 6 0 1 0 0 8.895"/><path fill="#0066cb" d="M10.742 10.447a5.98 5.98 0 0 0 1.972-4.448 5.98 5.98 0 0 0-1.972-4.447"/><path stroke="#0066cb" stroke-width=".31" d="M10.742 10.447a5.98 5.98 0 0 0 1.972-4.448 5.98 5.98 0 0 0-1.972-4.447"/><path fill="#cc0001" d="M14.775 0a5.98 5.98 0 0 0-4.64 2.188h1.214q.255.303.455.635H9.681q-.188.306-.348.635h2.82c.097.206.177.418.249.636h-3.32a5 5 0 0 0-.177.635h3.675q.135.616.134 1.27c0 .667-.107 1.308-.312 1.906H9.083q.105.327.25.636h2.82c-.108.22-.215.432-.349.635H9.681c.133.222.294.434.455.635h1.213a7 7 0 0 1-.607.636A5.998 5.998 0 0 0 20.77 6c0-3.313-2.685-6-5.995-6"/><path fill="#231f20" d="M20.137 9.332h.027q.015.001.017-.003.017-.007.018-.019c0-.007-.009-.015-.018-.018 0-.004-.017-.003-.017-.003h-.027zm0 .097h-.036v-.17h.072c.018 0 .026 0 .044.008q.017.016.018.043 0 .032-.027.044l.027.076h-.044l-.018-.069h-.036zm.027.063c.08 0 .151-.066.151-.148a.15.15 0 0 0-.151-.147.144.144 0 0 0-.143.147c0 .082.063.148.143.148m-.197-.148a.197.197 0 0 1 .393 0c0 .107-.09.194-.196.194a.196.196 0 0 1-.197-.194M5.782 7.669h-.758l.446-2.34-1.026 2.34h-.625l-.125-2.326-.5 2.326h-.686l.58-3.042h1.186l.018 1.883.82-1.883h1.259zm8.342-.031c-.206.056-.366.08-.536.08-.383 0-.588-.19-.588-.543 0-.07 0-.144.017-.222l.045-.242.036-.195.347-1.89h.741l-.107.569h.384l-.107.6h-.384l-.196 1.033c-.01.046-.01.079-.01.102 0 .128.072.184.25.184.09 0 .152-.007.206-.023zm-2.962-1.662c0 .313.17.528.57.69.304.124.357.16.357.273 0 .155-.133.224-.437.224-.223 0-.437-.03-.678-.099l-.098.572.027.005.143.025q.064.012.196.022c.178.014.321.021.42.021.793 0 1.16-.262 1.16-.826 0-.339-.152-.539-.527-.689-.321-.125-.357-.152-.357-.268 0-.134.125-.202.366-.202.151 0 .357.015.544.038l.107-.573a6 6 0 0 0-.66-.049c-.848 0-1.142.38-1.133.836m-3.471.591a1 1 0 0 0-.17-.01c-.419 0-.633.126-.633.376 0 .153.107.252.268.252.303 0 .526-.252.535-.618M8.2 7.669h-.625l.018-.257c-.196.203-.446.3-.785.3-.41 0-.687-.276-.687-.676 0-.603.482-.954 1.311-.954.09 0 .197.006.304.02a.5.5 0 0 0 .035-.162c0-.164-.134-.225-.482-.225-.214 0-.454.027-.624.07l-.098.025-.072.016.107-.556c.375-.095.616-.131.892-.131.643 0 .982.25.982.726 0 .122-.01.214-.063.49l-.151.877-.027.157-.018.126L8.2 7.6zm2.088-1.526c0-.051.009-.094.009-.126 0-.2-.134-.32-.357-.32-.241 0-.41.16-.473.444zm.365 1.472a3 3 0 0 1-.767.1c-.839 0-1.267-.38-1.267-1.108 0-.85.553-1.474 1.303-1.474.615 0 1.008.35 1.008.899 0 .183-.027.36-.098.61H9.35c-.01.038-.01.055-.01.078 0 .287.224.433.66.433.269 0 .51-.048.777-.156zm7.209-1.363c0-.259-.107-.504-.41-.504-.384 0-.616.451-.616.848 0 .336.16.561.429.556.16 0 .508-.22.57-.606q.027-.133.027-.294m.758.296c-.107.822-.687 1.187-1.454 1.187-.838 0-1.178-.512-1.178-1.14 0-.877.572-1.47 1.464-1.47.776 0 1.186.488 1.186 1.116 0 .152 0 .163-.018.307"/><path fill="#fff" d="M18.87 7.289h.027s.009 0 .018-.004.009-.012.009-.02c0-.006 0-.013-.01-.016 0-.004-.017-.004-.026-.004h-.018zm0 .096h-.036v-.17h.072c.009 0 .027 0 .044.01a.06.06 0 0 1 .018.042.05.05 0 0 1-.027.044l.027.074h-.044l-.027-.067h-.027zm.027.062c.08 0 .143-.066.143-.148a.144.144 0 0 0-.143-.146.15.15 0 0 0-.152.146c0 .082.072.148.152.148m-.196-.148c0-.106.089-.192.196-.192s.196.086.196.192c0 .108-.09.194-.196.194A.196.196 0 0 1 18.7 7.3m-12.73.193h-.75l.446-2.338L4.64 7.493h-.678L3.837 5.17l-.446 2.324h-.678l.58-3.041H4.46l.054 1.884.83-1.884h1.213zm8.341-.029a2 2 0 0 1-.535.08c-.384 0-.59-.192-.59-.543 0-.07.01-.144.019-.222l.044-.242.036-.197.348-1.888h.74l-.106.567h.383l-.107.602h-.384l-.196 1.033c-.009.045-.009.079-.009.102 0 .128.08.183.259.183q.118 0 .196-.023z"/><path fill="#231f20" d="m16.23 5.73-.018-.078.151-.388q-.053-.005-.053-.007c-.045-.009-.063-.014-.072-.014a.3.3 0 0 0-.071-.006c-.25 0-.42.109-.651.401l.08-.44h-.776l-.455 2.47h.74c.098-.566.143-.889.206-1.157.098-.445.428-.647.669-.602.026.005.044.005.08.018l.044.017z"/><path fill="#fff" d="M16.488 5.04c-.063-.024-.072-.024-.08-.027L16.345 5l-.08-.007c-.241 0-.42.11-.651.403l.07-.376h-.677l-.455 2.474h.75c.267-1.512.383-1.778.74-1.778q.037 0 .089.006l.09.018zm-5.138.762c0 .312.178.528.58.69.302.123.347.16.347.273 0 .153-.134.223-.428.223-.232 0-.437-.03-.678-.098l-.107.57.035.006.134.025q.07.012.205.022.266.02.41.02c.804 0 1.17-.26 1.17-.825 0-.34-.152-.538-.536-.688-.312-.126-.348-.154-.348-.27 0-.132.125-.2.366-.2.151 0 .348.013.544.036l.107-.573a6 6 0 0 0-.669-.049c-.838 0-1.133.38-1.133.838m-3.497.59a1 1 0 0 0-.17-.01q-.631.001-.633.376c0 .154.098.253.267.253.304 0 .518-.254.536-.62m.544 1.101H7.77l.018-.256c-.187.204-.446.299-.785.299-.401 0-.678-.276-.678-.675 0-.603.482-.955 1.311-.955.08 0 .188.008.304.02.017-.082.026-.116.026-.16 0-.164-.134-.225-.482-.225-.214 0-.455.025-.615.068l-.107.027-.063.016.099-.557c.374-.095.615-.13.892-.13.642 0 .981.25.981.725 0 .122-.009.214-.053.49l-.161.878-.027.157-.018.126-.008.085zm2.052-1.523v-.127c0-.201-.125-.318-.348-.318-.24 0-.41.157-.482.443zm.393 1.472c-.25.067-.5.1-.759.1-.838 0-1.276-.38-1.276-1.11 0-.847.553-1.473 1.303-1.473.616 0 1.008.35 1.008.898 0 .183-.027.361-.09.612h-1.48c-.01.038-.01.055-.01.078 0 .287.224.433.652.433.268 0 .509-.05.776-.157zm7.199-1.386c0-.258-.107-.503-.41-.503-.383 0-.615.451-.615.848 0 .337.16.562.428.557.16 0 .508-.22.57-.605a1.5 1.5 0 0 0 .027-.297m.777.317c-.116.823-.687 1.188-1.454 1.188-.848 0-1.187-.513-1.187-1.14 0-.876.58-1.471 1.472-1.471.776 0 1.186.489 1.186 1.116 0 .154 0 .164-.017.307"/></g><defs><clipPath id="a"><path fill="#fff" d="M.714 0H20.77v12H.714z"/></clipPath></defs></svg>
